X:1
T:Cross of Christ! Lead Onward
T:Cross of Christ! Lead Onward
T:Russell Kelso Carter
T:Russell Kelso Carter, 1893
T:Public Domain Courtesy of the Cyber Hymnal™
T:Public Domain Courtesy of the Cyber Hymnal™
C:Russell Kelso Carter
Z:Public Domain
Z:Courtesy of the Cyber Hymnal™
%%score ( 1 2 ) ( 3 4 )
L:1/8
Q:1/4=110
M:4/4
K:Eb
V:1 treble 
V:2 treble 
V:3 bass 
V:4 bass 
V:1
 [EG]2 [EG]2 [EG]2 [EG]2 | [EG]4 [EF]4 | [DF]2 [DF]2 [DG]2 [DF]2 | E8 | [Ec]2 [Ec]2 [Ee]2 [Ec]2 | %5
w: 1.~Cross of Christ! lead|on- ward,|Through the ho- ly|war;|In this sign we|
w: 2.~Not with pomp and|pa- geant,|Not in earth- ly|pride;|We must fight our|
w: 3.~Pan- o- plied in|grac- es,|Bold, yet hum- bly|meek;|Rest- ing while we’re|
w: 4.~By a cloud en-|com- passed,|Wit- ness- es a-|bove;|Saints, a- pos- tles,|
w: 5.~March- ing in the|path- way|That the Mas- ter|trod,|Walks One dai- ly|
 [Ec]4 [EB]4 | [F=A]2 [FA]2 [EG]2 [EF]2 | [DB]8 | [Fd]2 [Fd]2 [Fc]2 [FB]2 | [Ge]4 [GB]4 | %10
w: con- quer,|Now and ev- er-|more.|Not of man the|pow- er,|
w: bat- tles|Like the Cru- ci-|fied.|O- ver- come by|suff- 'ring,|
w: work- ing|Strong, but ev- er|weak.|Tim- id, though cou-|ra- geous,|
w: pro- phets,|Pre- cious ones we|love;|While “ad- vance” is|sound- ing,|
w: with us|Like the Son of|God.|To the end en-|dur- ing,|
 [Gd]2 [Gd]2 [^Fd]2 [=Ad]2 | [Gd]8 | [=Ae]2 [Ae]2 [Fd]2 [Fc]2 | (f2 d2) ([FB]2 [Gc]2) | %14
w: Not to man the|fame;|We are vic- tors|on- * ly *|
w: Con- quer through de-|feat;|Tried and test- ed|dai- * ly *|
w: Gain- ing as we|give;|Cru- ci- fied with|Je- * sus, *|
w: Mounts the bat- tle|thrill.|Cross of Christ! lead|on- * ward *|
w: Ar- mor ne’er laid|down|Till the cross leads|up- * ward *|
 [Fd]2 [Fd]2 c3 z B | B6 A2 ||"^Refrain" [EG]2 [EG]2 [EG]2 [EG]2 | [FA]4 [FA]4 | %18
w: In our lead- er’s||name. * * *||
w: In the fur- nace||heat. * * *||
w: Yet, in Him, we||live. Cross of Christ!|lead on-|
w: Where the Cap- tain||will. * * *||
w: To the blood bought||crown. * * *||
 [EB]2 [EB]2 [EB]2 [E=B]2 | [Ec]8 | [Ee]2 [Ee]2 [Ed]2 [Ec]2 | B4 ([_DB]2 A2) | %22
w: ||||
w: ||||
w: ward, Through the ho-|ly|war; In this sign|we con- *|
w: ||||
w: ||||
 [EG]2 [EG]2 [DF]3 E | E8 |] %24
w: ||
w: ||
w: quer Now and ev-|er-|
w: ||
w: ||
V:2
 x8 | x8 | x8 | E8 | x8 | x8 | x8 | x8 | x8 | x8 | x8 | x8 | x8 | F4 x4 | x4 F2 E2 x | D8 || x8 | %17
 x8 | x8 | x8 | x8 | (E2 _D2) (CF) x2 | x7 E | E8 |] %24
V:3
 [E,B,]2 [E,B,]2 [C,C]2 [C,C]2 | [F,=A,]4 [F,A,]4 | [B,,B,]2 [B,,B,]2 [B,,B,]2 [B,,A,]2 | [E,G,]8 | %4
 [A,,A,]2 A,2 [A,C]2 A,2 | A,4 [G,B,]4 | [F,C]2 [F,C]2 [F,B,]2 [F,=A,]2 | [B,,B,]8 | %8
 [B,,B,]2 [B,,B,]2 [B,,B,]2 [D,B,]2 | [E,B,]4 [E,E]4 | [G,B,]2 [G,B,]2 [D,=A,]2 [D,C]2 | [G,B,]8 | %12
 [F,C]2 [F,C]2 [F,B,]2 (=A,E) | [B,D]2 [B,,B,]2 [D,B,]2 [E,G,]2 | %14
 [F,B,]2 [F,B,]2 [F,=A,]2 [F,A,]2 x | [B,,B,]8 || [E,B,]2 [B,,B,]2 [E,B,]2 [B,,B,]2 | B,4 B,4 | %18
 [G,B,]2 [E,G,]2 [G,B,]2 [E,G,]2 | A,8 | [A,,C]2 [A,,C]2 [B,,B,]2 A,2 | %21
 ([E,G,]2 [F,B,]2) ([G,B,]2 C_C) | B,2 [B,,B,]2 [B,,A,]3 [B,,A,] | [E,G,]8 |] %24
V:4
 x8 | x8 | x8 | x8 | x2 A,2 A,2 x2 | A,4 x4 | x8 | x8 | x8 | x8 | x8 | x8 | x6 F,2 | x8 | x9 | %15
 x8 || x8 | (F,2 B,,2) (F,2 B,,2) | x8 | (A,2 E,2 C,2 A,,2) | x6 (C,D,) | x6 A,2 | B,2 x6 | x8 |] %24

